X:793
M:2/4
L:1/8
K:F
fc|Ac/A/ Gc/A/|FFF A,/C/|FB,/D/ GF|EG/E/ Cf/c/|Ac/A/ Gc/A/|
|:fc|Aa/f/ ca/f/|bb/g/ e/c/B/G/|Eg/e/ cb/g/|aa/f/ c/f/c/A/|

